icons/evolvere-black-folders-vivid-dark/mimetypes/64/ms-office-document.svg

<?xml version="1.0" encoding="UTF-8" standalone="no"?>
<!-- Created with Inkscape (http://www.inkscape.org/) -->

<svg
   xmlns:dc="http://purl.org/dc/elements/1.1/"
   xmlns:cc="http://creativecommons.org/ns#"
   xmlns:rdf="http://www.w3.org/1999/02/22-rdf-syntax-ns#"
   xmlns:svg="http://www.w3.org/2000/svg"
   xmlns="http://www.w3.org/2000/svg"
   xmlns:xlink="http://www.w3.org/1999/xlink"
   xmlns:sodipodi="http://sodipodi.sourceforge.net/DTD/sodipodi-0.dtd"
   xmlns:inkscape="http://www.inkscape.org/namespaces/inkscape"
   version="1.1"
   width="64"
   height="64"
   id="svg13094"
   inkscape:version="0.91+devel r"
   sodipodi:docname="ms-office-document.svg">
  <sodipodi:namedview
     pagecolor="#ffffff"
     bordercolor="#666666"
     borderopacity="1"
     objecttolerance="10"
     gridtolerance="10"
     guidetolerance="10"
     inkscape:pageopacity="0"
     inkscape:pageshadow="2"
     inkscape:window-width="1920"
     inkscape:window-height="1023"
     id="namedview68"
     showgrid="false"
     inkscape:zoom="10.429825"
     inkscape:cx="19.322126"
     inkscape:cy="33.152176"
     inkscape:window-x="-10"
     inkscape:window-y="35"
     inkscape:window-maximized="1"
     inkscape:current-layer="svg13094" />
  <defs
     id="defs11">
    <radialGradient
       cx="48.24176"
       cy="40.919418"
       r="14.16129"
       fx="40.959122"
       fy="40.608799"
       id="radialGradient3822-5-4"
       xlink:href="#radialGradient3996-7-9"
       gradientUnits="userSpaceOnUse"
       gradientTransform="matrix(-2.0491578e-7,2.1591248,-0.51856169,-3.8905836e-8,81.125244,-70.945917)" />
    <radialGradient
       cx="48.30785"
       cy="47.141338"
       r="14.16129"
       id="radialGradient3996-7-9"
       gradientUnits="userSpaceOnUse"
       gradientTransform="matrix(0.93962333,0.77477937,-1.7975241,2.1799696,88.130548,-93.365748)">
      <stop
         id="stop3954-9-1"
         style="stop-color:#00153e;stop-opacity:0.42091838;"
         offset="0" />
      <stop
         id="stop3958-7-1"
         style="stop-color:#00215e;stop-opacity:0.20921305;"
         offset="0.5" />
      <stop
         id="stop3956-2-0"
         style="stop-color:#002f84;stop-opacity:0;"
         offset="1" />
    </radialGradient>
    <radialGradient
       cx="48.30785"
       cy="47.141338"
       r="14.16129"
       id="radialGradient3373-7-3"
       xlink:href="#radialGradient3996-7-9"
       gradientUnits="userSpaceOnUse"
       gradientTransform="matrix(0.93962333,0.77477937,-1.7975241,2.1799696,88.130548,-93.365748)" />
    <linearGradient
       x1="45"
       y1="52"
       x2="73"
       y2="4"
       id="linearGradient4308-7-8"
       gradientUnits="userSpaceOnUse">
      <stop
         id="stop4304-4-0"
         style="stop-color:#000000;stop-opacity:0.10677083"
         offset="0" />
      <stop
         id="stop4306-0-0"
         style="stop-color:#000000;stop-opacity:0"
         offset="1" />
    </linearGradient>
    <linearGradient
       x1="31"
       y1="64"
       x2="31"
       y2="2"
       id="linearGradient3984-5-4"
       gradientUnits="userSpaceOnUse">
      <stop
         id="stop3099-8-9"
         style="stop-color:#3380ce;stop-opacity:1;"
         offset="0" />
      <stop
         id="stop3875-8-7"
         style="stop-color:#4290de;stop-opacity:1;"
         offset="0.5" />
      <stop
         id="stop3873-3"
         style="stop-color:#3380ce;stop-opacity:1;"
         offset="0.51612902" />
      <stop
         id="stop3101-0-0"
         style="stop-color:#4290de;stop-opacity:1;"
         offset="1" />
    </linearGradient>
    <linearGradient
       x1="48.992088"
       y1="46.124821"
       x2="37"
       y2="36"
       id="linearGradient4280-6-6"
       gradientUnits="userSpaceOnUse">
      <stop
         id="stop4293-8-4"
         style="stop-color:#3e85cd;stop-opacity:1;"
         offset="0" />
      <stop
         id="stop4295-1-1"
         style="stop-color:#2e69a6;stop-opacity:1;"
         offset="0.2098622" />
      <stop
         id="stop4297-0-3"
         style="stop-color:#357fca;stop-opacity:1;"
         offset="1" />
    </linearGradient>
    <linearGradient
       inkscape:collect="always"
       xlink:href="#linearGradient3873-2"
       id="linearGradient3716-0-0-4"
       gradientUnits="userSpaceOnUse"
       gradientTransform="translate(-3557.1943,-1600.2279)"
       x1="3564.7356"
       y1="1664.2279"
       x2="3564.7356"
       y2="1602.2279" />
    <linearGradient
       gradientUnits="userSpaceOnUse"
       id="linearGradient3873-2"
       y2="2"
       x2="31"
       y1="64"
       x1="31">
      <stop
         offset="0"
         style="stop-color:#dadada;stop-opacity:1"
         id="stop3875-7-5" />
      <stop
         offset="0.50050378"
         style="stop-color:#ebebeb;stop-opacity:1"
         id="stop3877-5" />
      <stop
         offset="0.51612902"
         style="stop-color:#dadada;stop-opacity:1"
         id="stop3879-2" />
      <stop
         offset="1"
         style="stop-color:#ebebeb;stop-opacity:1"
         id="stop3881-2" />
    </linearGradient>
  </defs>
  <metadata
     id="metadata13099">
    <rdf:RDF>
      <cc:Work
         rdf:about="">
        <dc:format>image/svg+xml</dc:format>
        <dc:type
           rdf:resource="http://purl.org/dc/dcmitype/StillImage" />
        <dc:title></dc:title>
      </cc:Work>
    </rdf:RDF>
  </metadata>
  <path
     inkscape:connector-curvature="0"
     d="M 4,0 64,0 64,62 4,62 z"
     id="path3960"
     style="fill:#306faf;fill-opacity:1;fill-rule:nonzero" />
  <path
     inkscape:connector-curvature="0"
     d="m 60,2 4,4 0,31 -4,-4 z"
     id="path3900"
     style="fill:url(#radialGradient3822-5-4);fill-rule:nonzero" />
  <path
     inkscape:connector-curvature="0"
     d="m 60,33 4,4 0,25 -28.32258,0 z"
     id="path3934"
     style="fill:url(#radialGradient3373-7-3);fill-rule:nonzero" />
  <path
     inkscape:connector-curvature="0"
     d="M 63,0 V 61 H 4 v 1 H 64 V 0 h -1 z"
     id="path4299"
     style="fill:#000000;fill-opacity:0.07887819;fill-rule:nonzero" />
  <path
     inkscape:connector-curvature="0"
     d="M 60,2 60,33 35,62 37,62 60.78125,33.65625 61,33.375 61,33 61,3 z"
     id="path3922"
     style="fill:url(#linearGradient4308-7-8);fill-rule:nonzero" />
  <path
     inkscape:connector-curvature="0"
     d="M 0,2 60,2 60,33 34,64 0,64 z"
     id="path3982"
     style="fill:url(#linearGradient3984-5-4);fill-rule:nonzero" />
  <path
     inkscape:connector-curvature="0"
     d="M 0,2 60,2 60,3 0,3 z"
     id="path4052"
     style="color:#000000;fill:#6fbdff;fill-opacity:1;fill-rule:nonzero;stroke-width:1;stroke-linecap:butt;stroke-linejoin:miter;stroke-miterlimit:4;stroke-opacity:1;stroke-dasharray:none;stroke-dashoffset:0;marker:none;visibility:visible;display:inline;overflow:visible;enable-background:accumulate" />
  <path
     inkscape:connector-curvature="0"
     d="m 0,63 35,0 -1,1 -34,0 z"
     id="path4255"
     style="fill:#000000;fill-opacity:0.10341803;fill-rule:nonzero" />
  <path
     inkscape:connector-curvature="0"
     d="M 4,0 64,0 64,1 4,1 z"
     id="path3878"
     style="color:#000000;fill:#6fbdff;fill-opacity:0.72491036;fill-rule:nonzero;stroke-width:1;stroke-linecap:butt;stroke-linejoin:miter;stroke-miterlimit:4;stroke-opacity:1;stroke-dasharray:none;stroke-dashoffset:0;marker:none;visibility:visible;display:inline;overflow:visible;enable-background:accumulate" />
  <path
     inkscape:connector-curvature="0"
     d="M 34,64 60,33 c -2.328567,2.776369 -4.36141,3 -11,3 H 37 v 15 c 0,6.64407 0.04437,9.37018 -3,13 z"
     id="path4278"
     style="fill:url(#linearGradient4280-6-6);fill-rule:nonzero" />
  <path
     inkscape:connector-curvature="0"
     d="m 59,32 c -2.328567,2.776369 -4.36141,3 -11,3 H 36 v 15 c 0,6.64407 0.04437,9.37018 -3,13 4,-5 4.000382,-8.35667 4,-13 V 36 h 11 c 5,0 8.041405,-0.38188 11,-4 z"
     id="path4282"
     style="fill:#6fbdff;fill-opacity:1;fill-rule:nonzero" />
  <path
     style="color:#000000;display:inline;overflow:visible;visibility:visible;fill:url(#linearGradient3716-0-0-4);fill-opacity:1;fill-rule:nonzero;stroke:none;stroke-width:1;stroke-linecap:butt;stroke-linejoin:miter;stroke-miterlimit:4;stroke-dasharray:none;stroke-dashoffset:0;stroke-opacity:1;marker:none;enable-background:accumulate"
     d="m 6,8 0,2 16,0 0,-2 z m 40,0 c -0.554,0 -1,0.446 -1,1 l 0,3 2,0 0,-2 5,0 0,5 -2,0 0,2 3,0 c 0.554,0 1,-0.446 1,-1 L 54,9 C 54,8.446 53.554,8 53,8 Z m -40,5 0,2 16,0 0,-2 z m 40.5,1 C 45.67157,14 45,14.67157 45,15.5 45,16.32843 45.67157,17 46.5,17 47.32843,17 48,16.32843 48,15.5 48,14.67157 47.32843,14 46.5,14 Z M 6,18 l 0,2 16,0 0,-2 z"
     id="path3548"
     inkscape:connector-curvature="0"
     sodipodi:nodetypes="cccccsscccccccssssscccccsssssccccc" />
</svg>

<?xml version="1.0" encoding="UTF-8" standalone="no"?>
<!-- Created with Inkscape (http://www.inkscape.org/) -->

<svg
   xmlns:dc="http://purl.org/dc/elements/1.1/"
   xmlns:cc="http://creativecommons.org/ns#"
   xmlns:rdf="http://www.w3.org/1999/02/22-rdf-syntax-ns#"
   xmlns:svg="http://www.w3.org/2000/svg"
   xmlns="http://www.w3.org/2000/svg"
   xmlns:xlink="http://www.w3.org/1999/xlink"
   xmlns:sodipodi="http://sodipodi.sourceforge.net/DTD/sodipodi-0.dtd"
   xmlns:inkscape="http://www.inkscape.org/namespaces/inkscape"
   version="1.1"
   width="64"
   height="64"
   id="svg13094"
   inkscape:version="0.91+devel r"
   sodipodi:docname="ms-office-document.svg">
  <sodipodi:namedview
     pagecolor="#ffffff"
     bordercolor="#666666"
     borderopacity="1"
     objecttolerance="10"
     gridtolerance="10"
     guidetolerance="10"
     inkscape:pageopacity="0"
     inkscape:pageshadow="2"
     inkscape:window-width="1920"
     inkscape:window-height="1033"
     id="namedview68"
     showgrid="false"
     inkscape:zoom="10.429825"
     inkscape:cx="37.730873"
     inkscape:cy="35.069753"
     inkscape:window-x="-2"
     inkscape:window-y="25"
     inkscape:window-maximized="1"
     inkscape:current-layer="svg13094" />
  <defs
     id="defs11">
    <linearGradient
       inkscape:collect="always"
       xlink:href="#linearGradient3051-2-8"
       id="linearGradient3238"
       gradientUnits="userSpaceOnUse"
       gradientTransform="translate(-55.89739)"
       x1="18.312868"
       y1="2.3480074"
       x2="18.312868"
       y2="63.818436" />
    <linearGradient
       id="linearGradient3051-2-8">
      <stop
         id="stop3053-6-1"
         style="stop-color:#d8d8d8;stop-opacity:1;"
         offset="0" />
      <stop
         id="stop3059-8-7"
         style="stop-color:#c5c5c5;stop-opacity:1;"
         offset="0.47965544" />
      <stop
         id="stop3061-2-5"
         style="stop-color:#e4e4e4;stop-opacity:1;"
         offset="0.50227195" />
      <stop
         id="stop3055-1-9"
         style="stop-color:#e7e7e7;stop-opacity:1;"
         offset="1" />
    </linearGradient>
    <radialGradient
       cx="48.24176"
       cy="40.919418"
       r="14.16129"
       fx="40.959122"
       fy="40.608799"
       id="radialGradient3822-5"
       xlink:href="#radialGradient3996-7"
       gradientUnits="userSpaceOnUse"
       gradientTransform="matrix(-2.0491578e-7,2.1591248,-0.51856169,-3.8905836e-8,81.125244,-70.945917)" />
    <radialGradient
       cx="48.30785"
       cy="47.141338"
       r="14.16129"
       id="radialGradient3996-7"
       gradientUnits="userSpaceOnUse"
       gradientTransform="matrix(0.93962333,0.77477937,-1.7975241,2.1799696,88.130548,-93.365748)">
      <stop
         id="stop3954-9"
         style="stop-color:#00153e;stop-opacity:0.42091838;"
         offset="0" />
      <stop
         id="stop3958-7"
         style="stop-color:#00215e;stop-opacity:0.20921305;"
         offset="0.5" />
      <stop
         id="stop3956-2"
         style="stop-color:#002f84;stop-opacity:0;"
         offset="1" />
    </radialGradient>
    <radialGradient
       cx="48.30785"
       cy="47.141338"
       r="14.16129"
       id="radialGradient3373-7"
       xlink:href="#radialGradient3996-7"
       gradientUnits="userSpaceOnUse"
       gradientTransform="matrix(0.93962333,0.77477937,-1.7975241,2.1799696,88.130548,-93.365748)" />
    <linearGradient
       x1="45"
       y1="52"
       x2="73"
       y2="4"
       id="linearGradient4308-7"
       gradientUnits="userSpaceOnUse">
      <stop
         id="stop4304-4"
         style="stop-color:#000000;stop-opacity:0.10677083"
         offset="0" />
      <stop
         id="stop4306-0"
         style="stop-color:#000000;stop-opacity:0"
         offset="1" />
    </linearGradient>
    <linearGradient
       x1="31"
       y1="64"
       x2="31"
       y2="2"
       id="linearGradient3984-5"
       gradientUnits="userSpaceOnUse">
      <stop
         id="stop3099-8"
         style="stop-color:#558bc1;stop-opacity:1;"
         offset="0" />
      <stop
         id="stop3875-8"
         style="stop-color:#6092c5;stop-opacity:1;"
         offset="0.5" />
      <stop
         id="stop3873-3-2"
         style="stop-color:#4a83bd;stop-opacity:1;"
         offset="0.51612902" />
      <stop
         id="stop3101-0"
         style="stop-color:#558bc1;stop-opacity:1;"
         offset="1" />
    </linearGradient>
    <linearGradient
       x1="48.992088"
       y1="46.124821"
       x2="37"
       y2="36"
       id="linearGradient4280-6"
       gradientUnits="userSpaceOnUse">
      <stop
         id="stop4293-8"
         style="stop-color:#4c85bf;stop-opacity:1;"
         offset="0" />
      <stop
         id="stop4295-1"
         style="stop-color:#3a699a;stop-opacity:1;"
         offset="0.2098622" />
      <stop
         id="stop4297-0"
         style="stop-color:#487fb7;stop-opacity:1;"
         offset="1" />
    </linearGradient>
  </defs>
  <metadata
     id="metadata13099">
    <rdf:RDF>
      <cc:Work
         rdf:about="">
        <dc:format>image/svg+xml</dc:format>
        <dc:type
           rdf:resource="http://purl.org/dc/dcmitype/StillImage" />
        <dc:title></dc:title>
      </cc:Work>
    </rdf:RDF>
  </metadata>
  <path
     inkscape:connector-curvature="0"
     d="M 4,0 64,0 64,62 4,62 z"
     id="path3960"
     style="fill:#3e6fa1;fill-opacity:1;fill-rule:nonzero" />
  <path
     inkscape:connector-curvature="0"
     d="m 60,2 4,4 0,31 -4,-4 z"
     id="path3900"
     style="fill:url(#radialGradient3822-5);fill-rule:nonzero" />
  <path
     inkscape:connector-curvature="0"
     d="m 60,33 4,4 0,25 -28.32258,0 z"
     id="path3934"
     style="fill:url(#radialGradient3373-7);fill-rule:nonzero" />
  <path
     inkscape:connector-curvature="0"
     d="M 63,0 V 61 H 4 v 1 H 64 V 0 h -1 z"
     id="path4299"
     style="fill:#000000;fill-opacity:0.07887819;fill-rule:nonzero" />
  <path
     inkscape:connector-curvature="0"
     d="M 60,2 60,33 35,62 37,62 60.78125,33.65625 61,33.375 61,33 61,3 z"
     id="path3922"
     style="fill:url(#linearGradient4308-7);fill-rule:nonzero" />
  <path
     inkscape:connector-curvature="0"
     d="M 0,2 60,2 60,33 34,64 0,64 z"
     id="path3982"
     style="fill:url(#linearGradient3984-5);fill-rule:nonzero" />
  <path
     inkscape:connector-curvature="0"
     d="M 0,2 60,2 60,3 0,3 z"
     id="path4052"
     style="color:#000000;fill:#7cb3e2;fill-opacity:1;fill-rule:nonzero;stroke-width:1;stroke-linecap:butt;stroke-linejoin:miter;stroke-miterlimit:4;stroke-opacity:1;stroke-dasharray:none;stroke-dashoffset:0;marker:none;visibility:visible;display:inline;overflow:visible;enable-background:accumulate" />
  <path
     inkscape:connector-curvature="0"
     d="m 0,63 35,0 -1,1 -34,0 z"
     id="path4255"
     style="fill:#000000;fill-opacity:0.10341803;fill-rule:nonzero" />
  <path
     inkscape:connector-curvature="0"
     d="M 4,0 64,0 64,1 4,1 z"
     id="path3878"
     style="color:#000000;fill:#7cb3e2;fill-opacity:1;fill-rule:nonzero;stroke-width:1;stroke-linecap:butt;stroke-linejoin:miter;stroke-miterlimit:4;stroke-opacity:1;stroke-dasharray:none;stroke-dashoffset:0;marker:none;visibility:visible;display:inline;overflow:visible;enable-background:accumulate" />
  <path
     inkscape:connector-curvature="0"
     d="M 34,64 60,33 c -2.328567,2.776369 -4.36141,3 -11,3 H 37 v 15 c 0,6.64407 0.04437,9.37018 -3,13 z"
     id="path4278"
     style="fill:url(#linearGradient4280-6);fill-rule:nonzero" />
  <path
     inkscape:connector-curvature="0"
     d="m 59,32 c -2.328567,2.776369 -4.36141,3 -11,3 H 36 v 15 c 0,6.64407 0.04437,9.37018 -3,13 4,-5 4.000382,-8.35667 4,-13 V 36 h 11 c 5,0 8.041405,-0.38188 11,-4 z"
     id="path4282"
     style="fill:#7cb3e2;fill-opacity:1;fill-rule:nonzero" />
  <path
     style="color:#000000;display:inline;overflow:visible;visibility:visible;opacity:1;fill:url(#linearGradient3238);fill-opacity:1;fill-rule:nonzero;stroke:none;stroke-width:1;stroke-linecap:butt;stroke-linejoin:miter;stroke-miterlimit:4;stroke-dasharray:none;stroke-dashoffset:0;stroke-opacity:1;marker:none;enable-background:accumulate"
     d="M 6 8 L 6 10 L 22 10 L 22 8 L 6 8 z M 46 8 C 45.446 8 45 8.446 45 9 L 45 12 L 47 12 L 47 10 L 52 10 L 52 15 L 50 15 L 50 17 L 53 17 C 53.554 17 54 16.554 54 16 L 54 9 C 54 8.446 53.554 8 53 8 L 46 8 z M 6 13 L 6 15 L 22 15 L 22 13 L 6 13 z M 46.5 14 C 45.67157 14 45 14.67157 45 15.5 C 45 16.32843 45.67157 17 46.5 17 C 47.32843 17 48 16.32843 48 15.5 C 48 14.67157 47.32843 14 46.5 14 z M 6 18 L 6 20 L 22 20 L 22 18 L 6 18 z "
     id="path3548-6" />
</svg>
